!!!OTL: Die Mordeltern
!!!OTL-incipit:Es war'n einmal zwei Bauernsoehn,
!!!ARE: Europa, Mitteleuropa, Deutschland (BRD), Nordbayern, Roehn
!!!YOR: 4, S. 310
!!    ????
!!!SCT: Q0085W
!!!TXL: @@DE
!!!YEM: Copyright 1995, estate of Helmut Schaffrath.
**kern	**text
*ICvox	*
*M3/4	*
*k[f#]	*
*G:	*
!LO:TX:a:t=88 Rhön	!
{8d	Es
8g	war'n
8a	ein-
=1	=1
4.b	-mal
8cc	ʒwei
8a	Bau-
8b	-ern-
=2	=2
4g	-ſöhn,
8r}	.
{8a	die
8b	hat-
8cc	-ten
=3	=3
4.dd	Luſt,
8ee	in
8cc	Krieg
8dd	ʒu
=4	=4
4b	gehn,
8r	.
8r	.
8r}	.
{8dd	in
=5	=5
4.dd	Krieg
8cc	und
8cc	frem-
8b	-de
=6	=6
4b	Län-
4a	-der,
8r}	.
{8ee	in
=7	=7
4.ee	Krieg
8ee	und
!LO:TUP:a	!
(12ddL	frem-
12ccJ)	.
12b	-de
=8	=8
4a	Län-
8g	-der.
8r	.
8r}	.
{8dd	in
=9	=9
4.dd	Krieg
8cc	und
8cc	frem-
8b	-de
=10	=10
4b	Län-
4a	-der,
8r}	.
{8ee	in
=11	=11
4.ee	Krieg
8ee	und
!LO:TUP:a	!
(12ddL	frem-
12ccJ)	.
12b	-de
=12	=12
4a	Län-
8g}	-der.
==	==
!!!AGN: Ballade, Habgier, Mord, Reue, Selbstmord
!!!ONB: ESAC (Essen Associative Code) Database: BALLADE
!!!AMT: simple triple
!!!AIN: vox
!!!EED: Helmut Schaffrath
!!!EEV: 1.0
!!!source: Deutsche Volkslieder mit ihren Melodien. Herausgegeben vom Deutschen Volksliedarchiv. Vierter Band. Berlin 1959.
!!!page: 310
!!!ENC: Anna Maria Matuszewska
!!!EEV: 2025/02/25
*-	*-
